X:1
T:Title
%%score 1 { ( 2 4 6 ) | ( 3 5 ) }
L:1/8
M:4/4
K:D
V:1 treble nm="Akkordion, Accordion"
V:2 treble nm="Grand Piano"
V:4 treble 
V:6 treble 
V:3 bass 
V:5 bass 
V:1
 z8[Q:1/4=100] | z8 | z8 | z8 | z8 | z8 | z8 | z8 | z8 | z8 |[M:5/4] z10 |[M:4/4] z8 | z8 | z8 | %14
 z8 | z8 | z8 | z8 | z8 | z8 | z8 | z8 | z8 | z8 | z8 | z8 | z8 | z8 | z8 | z8 |[M:9/8] z9 | %31
[M:3/4] B4 B2 | B4 B2 | B2 A2 E2 | B2 A2 E2 | F4 G2 | A4 D2 | E4 D2 | D6 | B4 B2 | =c4 B2 | %41
 B2 A2 E2 | B2 A2 E2 | F4 G2 | A4 D2 | B4 A2 | B6 | d4 d2 | d2 c2 A2 | =c4 c2 | =c2 B2 G2 | %51
 B2 A2 E2 | B2 A2 E2 |[M:7/8] F2 B3 A2 |[M:4/4] G6 z2 | z8 | z8 | z8 | z8 | z8 | z8 | z8 | z8 | %63
 z8 | z8 | z8 | z8 | z8 | z8 | z8 |] %70
V:2
 z4 z2 z D | F3 F [FA]3 [FA] | [EG]>[FA] [GB]>[Gc] [Fd]3 [FA] | [Ac]2 [GB]2 [FA]3 [EG] | %4
 [DF]>[CE] [DF]>[EG] [CE]3 [CE] | [A,DF]3 [A,DF] [DFA]3 [DFA] | G>A B>c d3 A | %7
 [Af]>[Af] [Af]>[Ge] [Fd]>[Ec] [Fd]>[GB] | [FA]2 [EG]2 [DF]3 [FA] | %9
 [Fd]>[Fd] [Fd]>[FA] [GB]>[Ac] [Bd]>[^Ae] |[M:5/4] [Af]2 [Ge]2 [Fd]4 z2 |[M:4/4] [Ec]4 z4 | %12
 [CA]4 [CE]4 | [Bd]4 z4 | [^GB]6 z2 | [Ec]4 z4 | [Ec]4 z4 | [^GB]4 z4 | E4 z4 | [Ec]4 z4 | %20
 [CA]4 [CE]4 | [Bd]4 z4 | [^GB]6 z2 | c4 z4 | z2 A,2 F2 [df]2 | [ce]4 z4 | [Ac]6 z2 | [Ac]4 z4 | %28
 [Ec]4 z4 | z4 c4[K:bass] |[M:9/8] [CA]6- [CA] z z |[M:3/4][K:treble] G,2 G2 G2 | E,2 G2 G2 | %33
 =C,2[K:treble] A2 A2 | A,,2[K:treble] G2 G2 | D,2 F2 G2 | D,2 =C2 D2 | G,2 E2[K:treble] D2 | %38
 G,2 D2 G2 | G,2 G2 G2 | F,2 A2 A2 | E,2 G2 G2 | =C,2[K:treble] A2 A2 | D,2 F2 G2 | D,2 A2 D2 | %45
 G,2 B2 A2 | G,2 B2 B2 | z E[K:treble] dE dE | z E[K:treble] cE cE | z D[K:treble] =cD cD | %50
 z D[K:treble] BD BD | z E[K:treble] AE AE | z E[K:treble] GE G[K:bass]E |[M:7/8] D,2 D3 =C2 | %54
[M:4/4] B,6 z2 | [FA]2 [DF]2 [Fd]2 [FA]2 | BBBB [FA]4 | [CEA]2 [CEG][CEG] [EAc]2 [CGB]2 | %58
 [GB][FA][=F^G][^FA] [DF]4 | [FA]2 [DF]2 [Fd]2 [FA]2 | BBBB e4 | d2 A>A f2 e2 | dcBc [Fd]4 | %63
 [FA]2 [FA]>[FA] [Fd]4 | [FA][FA][FA][FA] [Fd]4 | B2 B>B e2 e2 | d2 d>e [Af]4 | %67
 [Af]2 [Ad]>[Ad] B2 e2 | d4 [Ec]3 [Fd] | [Fd]6 z2 |] %70
V:3
 z4 z2 z [D,F,] | [D,A,D]3 [D,A,D] [D,D]3 [D,A,] | [A,,A,]>[A,,A,] [A,,A,]>[A,,A,] [D,A,]3 [D,A,] | %3
 [A,,A,]2 [A,,A,]2 [A,,A,]3 [A,,A,] | [A,,A,]>[A,,A,] [A,,A,]>[A,,A,] [A,,A,]3 [A,,A,] | %5
 D,3 D, D,3 D, | G,>A, B,>C D3 A, | [D,D]>[D,D] [D,D]>[D,A,] [D,A,]>[D,A,] [D,D]>[G,D] | %8
 [A,D]2 [A,,A,]2 [D,A,]3 [D,A,] | [D,A,]>[D,A,] [D,A,]>[D,D] [G,D]>[G,E] [G,D]>[G,D] | %10
[M:5/4] [A,D]2 [A,,C]2 [D,A,]4 z2 |[M:4/4] A,,2 E,2 z z/ C/ E>D | A,,2 E,2 E,2 E,2 | %13
 E,,2 B,,2 z z/[K:treble] ^G/ z z/ B/ | E,,2 E,2 E,>D, C,>B,, | %15
 A,,2 E,2 z z/[K:treble] G/ z z/ =F/ | A,,2 E,2 [E,A,C]2 [E,A,]2 | B,,2 z E B,,2 [F,A,^D]2 | %18
 [E,^G,]2 B,2 A,2 G,2 | A,,2 E,2 z z/ C/ E>D | A,,2 E,2 E,2 E,2 | %21
 E,,2 B,,2 z z/[K:treble] ^G/ z z/ B/ | E,,2 E,2 E,>D, C,>B,, | %23
 A,,2 E,2 z z/[K:treble] B/ z z/ ^G/ | D,2 F,2 [F,A,D]2 [F,A,]2 | E,2 z A E,2 B,2 | %26
 A,2 A,,C, E,^G,CE | A,,2 E,2 z z/[K:treble] G/ z z/ =F/ | A,,2 E,2 [E,A,C]2 [E,A,C]2 | %29
 [D,D]2 [F,A,F]2 E3 D |[M:9/8] A,,2 E,,- E,, A,,,2- A,,, z z |[M:3/4] G,,2 [B,D]2 [B,D]2 | %32
 E,,2 [B,E]2 [B,E]2 | =C,,2 [=CE]2 [CE]2 | A,,,2 [CE]2 [CE]2 | D,,2 D2 C2 | D,,2 A,2 F,2 | %37
 G,,2 =C2 B,2 | G,,2 B,4 | G,,2 [B,D]2 [B,D]2 | F,,2 [B,^D]2 [B,D]2 | E,,2 [B,E]2 [B,E]2 | %42
 =C,,2 [=CE]2 [CE]2 | D,,2 D2 C2 | D,,2 =C4 | G,,2[K:treble] [DG]2 [DF]2 | %46
 G,,2[K:treble] [DG]2 [DG]2 | E,,2[K:treble] .[^GB]2 .[GB]2 | A,,2[K:treble] .A2 .A2 | %49
 D,,2[K:treble] .[FA]2 .[FA]2 | G,,2[K:treble] .G2 .G2 | =C,,2 .=C2 .C2 | A,,,2 .[A,C]2 .[A,C]2 | %53
[M:7/8] D,,2 B,3 A,2 |[M:4/4] [G,,D,G,]6 z2 | [D,D]2 [D,A,]2 [D,A,]2 [D,D]2 | %56
 [G,DG][G,DG][G,DG][G,DG][K:bass] [D,D]4 | [A,,A,]2 [A,,A,][A,,A,] [A,,A,]2 [A,,A,]2 | %58
 [D,D][D,D][D,D][D,D] [D,A,]4 | [D,D]2 [D,A,]2 [D,A,]2 [D,D]2 | [G,DG][G,DG][G,DG][G,DG] [G,B,G]4 | %61
 [A,F]2 [A,DF]>[A,DF] [A,DA]2 [A,CG]2 | [A,EG][A,EG][A,EG][A,EG][K:bass] [D,D]4 | %63
 [D,D]2 [D,D]>[D,D] [D,A,]4 | [D,D][D,D][D,D][D,D] [D,D]4 | %65
 [G,DG]2 [G,DG]>[G,DG] [G,B,G]2 [G,B,G]2 | [A,F]2 [A,DF]>[A,CG][K:bass] [D,D]4 | %67
 [D,D]2 [F,D]>[F,D][K:treble] [G,DG]2 [G,B,G]2 | [A,F]4[K:bass] [A,,A,]3 [D,A,] | [D,A,]6 z2 |] %70
V:4
 x8 | x8 | x8 | x8 | x8 | x8 | x8 | x8 | x8 | x8 |[M:5/4] x10 |[M:4/4] z2 A,2 [DB]>A c>B | %12
 z2 A,2 A,2 A,2 | z2 E,2 [Ac]>B [Ac]>d | x8 | z2 A,2 [Ge]>c [FA]>B | z2 A,2 A2 [Ac]2 | %17
 z2 z ^G [FA]2 F2 | z2 D2 C2 B,2 | z2 A,2 [DB]>A c>B | z2 A,2 A,2 A,2 | z2 E,2 [Ac]>B [Ac]>d | x8 | %23
 E2 [A,A]2 [ce]>d [Ac]>B | [FA]4 z4 | z2 z c [Bd]2 [D^GB]2 | x8 | z2 A,2 [Ge]>c [FA]>B | %28
 z2 A,2 A2 E2 | F2 d2 z2[K:bass] z B |[M:9/8] z3 z A,,2- A,, z z |[M:3/4][K:treble] x6 | x6 | %33
 x2[K:treble] x4 | x2[K:treble] x4 | x6 | x6 | x4[K:treble] x2 | x6 | x6 | x6 | x6 | %42
 x2[K:treble] x4 | x6 | x6 | x6 | x6 | E,2[K:treble] z2 z2 | E,2[K:treble] z2 z2 | %49
 D,2[K:treble] z2 z2 | D,2[K:treble] z2 z2 | =C,2[K:treble] z2 z2 | A,,2[K:treble] z2 z2[K:bass] | %53
[M:7/8] x7 |[M:4/4] x8 | x8 | x8 | x8 | x8 | x8 | x8 | x8 | x8 | x8 | x8 | x8 | x8 | x8 | x8 | %69
 x8 |] %70
V:5
 x8 | x8 | x8 | x8 | x8 | x8 | x8 | x8 | x8 | x8 |[M:5/4] x10 |[M:4/4] z4 A,,2 [E,A,]2 | x8 | %13
 z4 E,,2[K:treble] E,2 | x8 | z4 A,,2[K:treble] A,2 | x8 | z2 E,2 z4 | x8 | z4 A,,2 [E,A,]2 | x8 | %21
 z4 E,,2[K:treble] E,2 | x8 | z4 A,,2[K:treble] [E,A,]2 | x8 | z2 A,2 z4 | x8 | %27
 z4 A,,2[K:treble] [E,A,]2 | x8 | z4 E,2 z2 |[M:9/8] x9 |[M:3/4] x6 | x6 | x6 | x6 | x6 | x6 | x6 | %38
 x6 | x6 | x6 | x6 | x6 | x6 | x6 | x2[K:treble] x4 | x2[K:treble] x4 | x2[K:treble] x4 | %48
 x2[K:treble] x4 | x2[K:treble] x4 | x2[K:treble] x4 | x6 | x6 |[M:7/8] x7 |[M:4/4] x8 | x8 | %56
 x4[K:bass] x4 | x8 | x8 | x8 | x8 | x8 | x4[K:bass] x4 | x8 | x8 | x8 | x4[K:bass] x4 | %67
 x4[K:treble] x4 | x4[K:bass] x4 | x8 |] %70
V:6
 x8 | x8 | x8 | x8 | x8 | x8 | x8 | x8 | x8 | x8 |[M:5/4] x10 |[M:4/4] x8 | x8 | x8 | x8 | x8 | %16
 x8 | z2 ^G,2 z4 | x8 | x8 | x8 | x8 | x8 | x8 | x8 | z2 C2 z4 | x8 | x8 | x8 | %29
 z4 z2[K:bass] E,,2 |[M:9/8] x9 |[M:3/4][K:treble] x6 | x6 | x2[K:treble] x4 | x2[K:treble] x4 | %35
 x6 | x6 | x4[K:treble] x2 | x6 | x6 | x6 | x6 | x2[K:treble] x4 | x6 | x6 | x6 | x6 | %47
 x2[K:treble] x4 | x2[K:treble] x4 | x2[K:treble] x4 | x2[K:treble] x4 | x2[K:treble] x4 | %52
 x2[K:treble] x3[K:bass] x |[M:7/8] x7 |[M:4/4] x8 | x8 | x8 | x8 | x8 | x8 | x8 | x8 | x8 | x8 | %64
 x8 | x8 | x8 | x8 | x8 | x8 |] %70

